!!!!SEGMENT: pl-kk--kk-i-66--006_anonim--missa-sanctus.krn
!!!cenid: 17xx:2263
!!!COM: Anonim
!!!COM-rismID: pe30004985
!!!CDT:
!!!CNT:
!!!OPR: Missa
!!!OTL: Sanctus
!!!OMV: 006
!!!PDT:
!!!AGN: Sacred; Mass
!!!SMS-siglum: PL-Kk
!!!SMS-shelfmark: Kk.I.66
!!!SMS-shelfwork: 001-006 M
!!!SMS-variant: Baſso: PL-Kk Kk.I.66:0013-0014
!!!SMS-altvar: Baſso: PL-Kk.KK.I.66:0019
!!!NIFC-rismSourceID: 1001154622
!!!NIFC-rismChildID: 1001154622
!!!NIFC-islandoraID: pl-kk:2804
!!!URL-pdf-islandora: https://repozytorium.nifc.pl/islandora/object/pl-kk%3A2804/datastream/PDF/view
!!!URL-scan: https://polish.musicsources.pl/pl/lokalizacje/galeria/rekopisy/6137 @EN{Scan on Polish Music Sources Website} @PL{Skany w portalu Dziedzictwo Muzyki Polskiej w otwartym dostępie}
!!!ONB-nifc: UWAGA: części Mszy: 1. Salve sancta parens, 2. Kyrie, 3. Et in terra, 4. Alleluia virga jesse floruit, 5. Beata es virgo Maria, 6. Sanctus, 7. Agnus Dei, 8. Dona nobis, 9. Deo gratias
!!!AIN: 1 empty 2 tenor
!!!key:
**kern	**text	**kern	**text	**kern	**text
*part3	*part3	*part2	*part2	*part1	*part1
*staff3	*staff3	*staff2	*staff2	*staff1	*staff1
*>[A,B,C,B]	*>[A,B,C,B]	*>[A,B,C,B]	*>[A,B,C,B]	*>[A,B,C,B]	*>[A,B,C,B]
*>A	*>A	*>A	*>A	*>A	*>A
*Iempty	*	*Itenor	*	*Itenor	*
*I"Baſso	*	*I"Tenore Secundo.	*	*I"Tenore Primo	*
*I'B	*	*I'T 2	*	*I'T	*
*clefF4	*	*clefC4	*	*clefC4	*
*k[]	*	*k[]	*	*k[]	*
*C:	*	*C:	*	*C:	*
*M2/2	*	*M2/2	*	*M2/2	*
*met(c|)	*	*met(c|)	*	*met(c|)	*
=1	=1	=1	=1	=1	=1
2C/	San-	4E/	San-	4c\	San-
.	.	4G/	.	4B\	.
*2\right	*	*	*	*	*
2c\	.	4F/	.	4A\	.
.	.	4E/	.	4G\	.
=2	=2	=2	=2	=2	=2
2F\	.	4F/	.	4A\	.
.	.	4A/	.	4f\	.
2G\	.	4F/	.	4d\	.
.	.	4D/	.	4B\	.
=3	=3	=3	=3	=3	=3
1C;	-ctus	1E;	-ctus	1c;	-ctus
=4||	=4||	=4||	=4||	=4||	=4||
4C/	San-	4c\	San-	4e\	San-
4D/	.	4B\	.	4d\	.
4BB/	.	4d\	.	4f\	.
4C/	.	4c\	.	4e\	.
=5	=5	=5	=5	=5	=5
2F\	.	4B\	.	4d\	.
.	.	4d\	.	4f\	.
2G\	.	4c\	.	4e\	.
.	.	4B\	.	4d\	.
=6	=6	=6	=6	=6	=6
1C;	-ctus	1c;	-ctus,	1e;	-ctus.
=7||	=7||	=7||	=7||	=7||	=7||
*	*	*2\right	*	*2\right	*
2C/	San-	2e\	San-	2g\	San-
4D/	.	4d\	.	4f\	.
4E/	.	4c\	.	4e\	.
!	!	!LO:LB:g=original	!	!LO:LB:g=original	!
=8	=8	=8	=8	=8	=8
1G	.	2d\	.	2f\	.
.	.	4c\	.	4e\	.
.	.	4B\	.	4d\	.
!LO:LB:g=original	!	!	!	!	!
=9	=9	=9	=9	=9	=9
2c\	.	4c\	.	4e\	.
.	.	8d\L	.	8f\L	.
.	.	8e\J	.	8g\J	.
4F\	.	4d\	.	4f\	.
4F#X\	.	4c\	.	4e\	.
=10	=10	=10	=10	=10	=10
2G\	-ctus	2B\	-ctus	2d\	-ctus
2r	.	2r	.	2r	.
=11	=11	=11	=11	=11	=11
1G	Do-	4B\	Do-	4d\	Do-
.	.	4c\	.	4e\	.
.	.	4G\	.	4B\	.
.	.	4A\	.	4c\	.
=12	=12	=12	=12	=12	=12
4G\	.	4B\	.	4d\	.
4G\	-mi-	4c\	-mi-	4e\	-mi-
2G\	-nus	2d\	-nus	2f\	-nus
=13	=13	=13	=13	=13	=13
4c\	De-	4c\	De-	4e\	De-
4G\	.	4d\	.	4f\	.
4E\	.	4e\	.	4c\	.
4F\	.	4B\	.	4d\	.
=14	=14	=14	=14	=14	=14
4E\	.	4c\	.	4e\	.
4D\	.	4d\	.	4f\	.
2C/	-us	2e\	-us	2g\	-us
!	!	!LO:LB:g=original	!	!LO:LB:g=original	!
=15	=15	=15	=15	=15	=15
2F\	Sa-	2d\	Sa-	2f\	Sa-
2F#X\	-ba-	2c\	-ba-	2e\	-ba-
=16	=16	=16	=16	=16	=16
1G;	-oth.	1B;	-oth	1d;	-oth
!LO:LB:g=original	!	!	!	!	!
=17|!	=17|!	=17|!	=17|!	=17|!	=17|!
2G\	Ple-	2B\	Ple-	2d\	Ple-
4B\	-ni	4d\	-ni	4f\	-ni
4G\	sunt	4B\	sunt	4d\	sunt
=18	=18	=18	=18	=18	=18
4c\	cae-	4c\	cae-	4e\	cae-
4G\	.	4d\	.	4f\	.
4E\	-li	2e\	-li	2g\	-li
4C\	.	.	.	.	.
=19	=19	=19	=19	=19	=19
2G\	cae-	2d\	cae-	2f\	cae-
4G\	-li	4B\	-li	4d\	-li
4G\	et	4d\	et	4f\	et
=20	=20	=20	=20	=20	=20
4C/	ter-	2G/	ter-	4e\	ter-
4D/	.	.	.	4d\	.
2E\	-ra	2G/	-ra	2c\	-ra
=21	=21	=21	=21	=21	=21
4F\	glo-	4B\	glo-	4d\	glo-
4F\	-ri-	4B\	-ri-	4d\	-ri-
2E\	-a	2G/	-a	2c\	-a
=22	=22	=22	=22	=22	=22
4G\	glo-	4d\	glo-	4f\	glo-
4G\	-ri-	4d\	-ri-	4f\	-ri-
2c\	-a	2G/	-a	2e\	-a
!	!	!LO:LB:g=original	!	!LO:LB:g=original	!
=23	=23	=23	=23	=23	=23
1G	tu-	2B\	tu-	2d\	tu-
.	.	2c\	.	2e\	.
=24	=24	=24	=24	=24	=24
1GG	.	2c\	.	2e\	.
.	.	2B\	.	2d\	.
=25	=25	=25	=25	=25	=25
1C;	-a	1G;	-a	1e;	-a
!LO:PB:g=original	!	!LO:LB:g=original	!	!LO:LB:g=original	!
=26||	=26||	=26||	=26||	=26||	=26||
*>B	*>B	*>B	*>B	*>B	*>B
*M3/2	*	*M3/2	*	*M3/2	*
2C/	O-	2c\	O-	2e\	O-
=27	=27	=27	=27	=27	=27
2G\	-san-	4B\	-san-	4d\	-san-
.	.	4c\	.	4e\	.
2B\	.	4d\	.	4f\	.
.	.	4c\	.	4e\	.
2G\	.	4d\	.	4f\	.
.	.	4B\	.	4d\	.
=28	=28	=28	=28	=28	=28
2c\	-na	2c\	-na	2e\	-na
2C/	.	2r	.	2r	.
2c\	O-	2e\	O-	2g\	O-
=29	=29	=29	=29	=29	=29
2B\	-san-	4d\	-san-	4f\	-san-
.	.	4c\	.	4e\	.
2G\	.	4B\	.	4d\	.
.	.	4c\	.	4e\	.
2B\	.	4d\	.	4f\	.
.	.	4B\	.	4d\	.
=30	=30	=30	=30	=30	=30
2c\	-na	2c\	-na	2e\	-na
4C/	in	2c\	in	2e\	in
4D/	.	.	.	.	.
4E/	ex-	2c\	ex-	2e\	ex-
4F/	.	.	.	.	.
=31	=31	=31	=31	=31	=31
2G\	-cel-	2c\	-cel-	2e\	-cel-
2GG/	-sis	2B\	-sis	2d\	-sis
2r	.	2r	.	2r	.
=32	=32	=32	=32	=32	=32
2G\	in	2B\	in	1f	in
2B\	.	2d\	.	.	.
2G\	ex-	2d\	ex-	2f\	ex-
!LO:LB:g=original	!	!LO:LB:g=original	!	!LO:LB:g=original	!
=33	=33	=33	=33	=33	=33
2c\	-cel-	2d\	-cel-	2f\	-cel-
2C/	-sis	2c\	-sis	2e\	-sis
2C/	o-	2e\	o-	2g\	O-
=34	=34	=34	=34	=34	=34
2F\	-san-	2d\	-san-	2f\	-san-
2G\	.	2c\	.	2e\	.
2GG/	.	2B\	.	2d\	.
=35	=35	=35	=35	=35	=35
2C/	-na	2c\	-na	2e\	-na
2G\	in	2B\	in	2d\	in
2G\	ex-	2e\	ex-	2e\	ex-
=36	=36	=36	=36	=36	=36
1.G	-cel-	2d\	-cel-	2f\	-cel-
.	.	2c\	.	2e\	.
.	.	2d\	.	2f\	.
=37	=37	=37	=37	=37	=37
2C/	.	2e\	.	2g\	.
2D/	.	2d\	.	2f\	.
2E\	.	2c\	.	2e\	.
=38	=38	=38	=38	=38	=38
2F\	.	2A\	.	2f\	.
2G\	.	2c\	.	2e\	.
2GG/	.	2B\	.	2d\	.
=39	=39	=39	=39	=39	=39
2C/	sis	2c\	sis	2e\	sis
1G	o-	2B\	o-	2d\	O-
.	.	2c\	.	2e\	.
!	!	!LO:LB:g=original	!	!LO:LB:g=original	!
=40	=40	=40	=40	=40	=40
1G	-san-	2d\	-san-	2f\	-san-
.	.	2c\	.	2e\	.
2G\	-na	2d\	-na	2f\	-na
!LO:LB:g=original	!	!	!	!	!
=41	=41	=41	=41	=41	=41
2C/	in	2e\	in	2g\	in
2D/	ex-	2d\	ex-	2f\	.
2E\	.	2c\	.	2e\	ex-
=42	=42	=42	=42	=42	=42
2F\	-cel-	2A\	-cel-	2f\	-cel-
2G\	.	2c\	.	2e\	.
2GG/	.	2B\	.	2d\	.
=43	=43	=43	=43	=43	=43
1.C	-sis	1.c	-sis	1.e	-sis
!LO:LB:g=original	!	!LO:LB:g=original	!	!LO:LB:g=original	!
=44||	=44||	=44||	=44||	=44||	=44||
*>C	*>C	*>C	*>C	*>C	*>C
*M3/2	*	*M3/2	*	*M3/2	*
2C/	Be-	1e	Be-	1g	Be-
2E\	.	.	.	.	.
2F\	-ne-	2d\	-ne-	2f\	-ne-
=45	=45	=45	=45	=45	=45
2G\	-dic-	2c\	-dic-	2e\	-dic-
2F\	.	2B\	.	2d\	.
2E\	-tus	2c\	-tus	2e\	-tus
=46	=46	=46	=46	=46	=46
1.G	qui	2B\	qui	2d\	qui
.	.	2c\	.	2e\	.
.	.	2d\	.	2f\	.
=47	=47	=47	=47	=47	=47
2c\	ve-	2c\	ve-	2e\	ve-
2G\	-nit	2B\	-nit	2d\	-nit
2r	.	2r	.	2r	.
=48	=48	=48	=48	=48	=48
2C/	Be-	1G	Be-	1e	Be-
2c\	.	.	.	.	.
2c\	-ne-	2G/	-ne-	2e\	-ne-
=49	=49	=49	=49	=49	=49
2d\	-dic-	2B/	-dic-	2f\	-dic-
2B\	.	2G/	.	2d\	.
2c\	-tus	2G/	-tus	2e\	-tus
!	!	!LO:LB:g=original	!	!LO:LB:g=original	!
=50	=50	=50	=50	=50	=50
2C/	qui	4e\	qui	(4g\	qui
.	.	4c\	.	4e\	.
2.F\	ve-	4d\	.	4f\)	.
.	.	4c\	ve-	4e\	ve-
.	.	4d\	.	4f\	.
4F#X\	.	4c\	.	4e\	.
!LO:LB:g=original	!	!	!	!	!
=51	=51	=51	=51	=51	=51
2G\	-nit	2B\	-nit	2d\	-nit
2r	.	2r	.	2r	.
2G\	in	2d\	in	2f\	in
=52	=52	=52	=52	=52	=52
2.C/	no-	2.G/	no-	2.e\	no-
4D/	-mi-	4G/	-mi-	4f\	-mi-
2C/	-ne	2G/	-ne	2e\	-ne
=53	=53	=53	=53	=53	=53
1.G	Do-	2B\	Do-	2d\	Do-
.	.	2c\	.	2e\	.
.	.	2d\	.	2f\	.
=54	=54	=54	=54	=54	=54
2E\	.	2c\	.	2e\	.
2D\	.	2d\	.	2f\	.
2C\	.	2e\	.	2g\	.
=55	=55	=55	=55	=55	=55
2F\	.	2d\	.	2f\	.
2G\	.	2c\	.	2e\	.
2G\	-mi-	2B\	-mi-	2d\	-mi-
!	!	!LO:LB:g=original	!	!LO:PB:g=original	!
=56	=56	=56	=56	=56	=56
2C/	-ni,	2G/	-ni	2e\	-ni
2r	.	2r	.	2r	.
2C/	qui	2G/	qui	2e\	qui
=57	=57	=57	=57	=57	=57
2G\	ve-	2c\	ve-	2e\	ve-
2G\	-nit	4B\	-nit	4d\	-nit
.	.	4c\	.	4e\	.
2G\	in	2d\	in	2f\	in
=58	=58	=58	=58	=58	=58
2G\	no-	2d\	no-	2f\	no-
2E/	-mi-	4c\	mi-	4e\	mi-
.	.	4d\	.	4f\	.
2C/	-ne	2e\	-ne	2g\	-ne
!LO:LB:g=original	!	!	!	!	!
=59	=59	=59	=59	=59	=59
2F\	Do-	2d\	Do-	2f\	Do-
2G\	.	2c\	.	2e\	.
2GG/	-mi-	2B\	-mi-	2d\	-mi-
=60	=60	=60	=60	=60	=60
!LO:TX:b:i:t=Osanna da Capo	!	!LO:TX:b:i:t=Osanna da Capo	!	!LO:TX:b:i:t=Osanna da Capo	!
!LO:N:vis=2.	!	!	!	!	!
1.C	-ni	1.c	-ni	1.e	-ni
==	==	==	==	==	==
*-	*-	*-	*-	*-	*-
!!!system-decoration: [(s1,s2,s3)]
!!!ENC: Andrzej Kubiczek
!!!END: 2021-08-06
!!!ENC: Anastazja Marusiak
!!!END: 2021-07-07
!!!YEC: Copyright 2022 Narodowy Instytut Fryderyka Chopina (https://polishscores.org)
!!!YEM: License CC-BY-4.0 (https://creativecommons.org/licenses/by/4.0)
